src/assets/filled/GridEdit.svg

<?xml version="1.0" encoding="UTF-8"?>
<svg width="24" height="24" viewBox="0 0 24 24" xmlns="http://www.w3.org/2000/svg">
 <path d="m21.33 14.67c-1.05-1.05-1.88-0.71-2.6 0l-4.15 4.15c-0.16 0.16-0.31 0.47-0.35 0.69l-0.23 1.59c-0.08 0.57 0.32 0.98 0.89 0.89l1.59-0.23c0.22-0.03 0.53-0.19 0.69-0.35l4.15-4.15c0.73-0.71 1.06-1.54 0.01-2.59z"/>
 <path d="m6.7468 2.0655c0.54986-0.07124 1.0032 0.38563 1.0032 0.94008v3.7944c0 0.55229-0.44772 1-1 1h-3.75c-0.55228 0-1.0082-0.44973-0.94133-0.99796 0.32766-2.6866 2.0132-4.39 4.6882-4.7366z"/>
 <path d="m20.93 7.8h-3.68c-0.5523 0-1-0.44772-1-1v-3.7938c0-0.55472 0.4541-1.0117 1.0042-0.93992 2.6336 0.34345 4.3103 2.0018 4.6758 4.6137 0.08 0.59-0.4 1.12-1 1.12z"/>
 <path d="m6.75 16.3c0.55228 0 1 0.4477 1 1v3.62c0 0.6-0.53 1.08-1.13 1-2.5691-0.3823-4.1899-2.0289-4.5463-4.6099-0.07621-0.552 0.38177-1.0101 0.93901-1.0101h3.7373z"/>
 <path d="m7.75 10.3c0-0.55228-0.44772-1-1-1h-3.75c-0.55228 0-1 0.44772-1 1v3.5c0 0.5523 0.44772 1 1 1h3.75c0.55228 0 1-0.4477 1-1v-3.5z"/>
 <path d="m14.75 10.3c0-0.55228-0.4477-1-1-1h-3.5c-0.55228 0-1 0.44772-1 1v3.5c0 0.5523 0.44772 1 1 1h3.5c0.55 0 1-0.45 1-1v-3.5z"/>
 <path d="m14.75 3c0-0.55229-0.4477-1-1-1h-3.5c-0.55228 0-1 0.44772-1 1v3.8c0 0.55229 0.44772 1 1 1h3.5c0.5523 0 1-0.44772 1-1v-3.8z"/>
</svg>

<svg width="24" height="24" viewBox="0 0 24 24"  xmlns="http://www.w3.org/2000/svg">
<path d="M21.3299 14.67C20.2799 13.62 19.4499 13.96 18.7299 14.67L14.5799 18.82C14.4199 18.98 14.2699 19.29 14.2299 19.51L13.9999 21.1C13.9199 21.67 14.3199 22.08 14.8899 21.99L16.4799 21.76C16.6999 21.73 17.0099 21.57 17.1699 21.41L21.3199 17.26C22.0499 16.55 22.3799 15.72 21.3299 14.67Z" />
<path d="M6.74683 2.06549C7.29669 1.99425 7.75 2.45112 7.75 3.00557V6.8C7.75 7.35229 7.30228 7.8 6.75 7.8H3C2.44772 7.8 1.9918 7.35027 2.05867 6.80204C2.38633 4.11548 4.07187 2.41205 6.74683 2.06549Z" />
<path d="M20.93 7.8H17.25C16.6977 7.8 16.25 7.35228 16.25 6.8V3.00625C16.25 2.45153 16.7041 1.99459 17.2542 2.06633C19.8878 2.40978 21.5645 4.0681 21.93 6.68C22.01 7.27 21.53 7.8 20.93 7.8Z" />
<path d="M6.75 16.2998C7.30228 16.2998 7.75 16.7475 7.75 17.2998V20.9198C7.75 21.5198 7.22 21.9998 6.62 21.9198C4.05088 21.5375 2.43008 19.8909 2.07373 17.3099C1.99752 16.7579 2.4555 16.2998 3.01274 16.2998H6.75Z" />
<path d="M7.75 10.2998C7.75 9.74752 7.30228 9.2998 6.75 9.2998H3C2.44772 9.2998 2 9.74752 2 10.2998V13.7998C2 14.3521 2.44772 14.7998 3 14.7998H6.75C7.30228 14.7998 7.75 14.3521 7.75 13.7998V10.2998Z" />
<path d="M14.75 10.2998C14.75 9.74752 14.3023 9.2998 13.75 9.2998H10.25C9.69772 9.2998 9.25 9.74752 9.25 10.2998V13.7998C9.25 14.3521 9.69772 14.7998 10.25 14.7998H13.75C14.3 14.7998 14.75 14.3498 14.75 13.7998V10.2998Z" />
<path d="M14.75 3C14.75 2.44771 14.3023 2 13.75 2H10.25C9.69772 2 9.25 2.44772 9.25 3V6.8C9.25 7.35229 9.69772 7.8 10.25 7.8H13.75C14.3023 7.8 14.75 7.35228 14.75 6.8V3Z" />
</svg>
